X:1
T:Title
%%score { ( 1 3 ) | ( 2 4 ) }
L:1/8
M:4/4
K:G
V:1 bass nm="Grand Piano"
V:3 bass 
V:2 treble 
V:4 treble 
V:1
 z4 z2[Q:1/4=100] D,G, | z[K:treble] BBB BG,[K:bass]F,G, | z[K:treble] AAA AA[K:bass]E,A, | %3
 z ccB ^G,2 A,2 | z ^cdd d[K:bass]D,G,A, | z[K:treble] BBB BB,[K:bass]A,G, | %6
 z[K:treble] [Gc][DGc][Gc] .[Gc]2 z2 | z [G^c][DGc][Gc] .[Gc]2 z2 |[M:7/8] z [Ac][FAc] c d3 | %9
[M:1/4] DG |[M:4/4] B2 G2- GB[^Gc]B |[M:3/4] B2 A4 |[M:1/4] [EA][EB] |[M:4/4] [Ec]cEE BAFE | %14
 [CE]-[G,CE][B,D]-[G,B,-D-] [G,B,D]2 DG | B2 G2- GB[^Gc]B | B2 A4 .[Ge].[Ge] | %17
[M:17/16] .[Ge][Gd]3/2[G,B,D][G,B,D][EFc][EFc][DFB]>[CDA] |[M:3/4] [B,DG]6 |] %19
V:2
 z8 | z [DG][DG][DG] .[DG]2 z2 | z[K:bass] [CE][CE][CE] [CE][CE] z2 | %3
 z[K:treble] [EA][EA][B,EA] z4 | z [EG][DG][DG] .[DG]2 z2 | z [DG][DG][DG] .[DG]2 z2 | %6
 z[K:bass] D z D DE,F,G, | z D z D DE,F,G, |[M:7/8] z[K:treble] F z [FA] [Fc]3 | %9
[M:1/4] [G,B,][G,B,D] |[M:4/4] [G,D]2 [G,B,D]2- [G,B,D][G,DG][K:bass][E,E][^G,DE] | %11
[M:3/4] [A,DE]2 [A,CE]4 |[M:1/4] [C,A,][B,,^G,] |[M:4/4] z E [C,A,]2 DCCC | %14
 G,,G,,G,,G,, G,,2 [G,B,][K:treble][G,B,D] | [G,D]2 [G,B,D]2- [G,B,D][G,DG][K:bass][E,E][^G,DE] | %16
 [A,DE]2 [A,DE]4 .[C,C].[^C,_B,] |[M:17/16] .[D,B,][D,B,]3/2D,D,D,D,D,>D, |[M:3/4] G,6 |] %19
V:3
 x8 | B,2[K:treble] z2 z4[K:bass] | F,2[K:treble] z2 z4[K:bass] | C4 z4 | _B,2 z2 z4[K:bass] | %5
 B,2[K:treble] z2 z4[K:bass] | F,2[K:treble] z2 z4 | x8 |[M:7/8] x7 |[M:1/4] x2 |[M:4/4] x8 | %11
[M:3/4] x6 |[M:1/4] x2 |[M:4/4] x8 | .G,2 .G,2 z4 | x8 | x8 |[M:17/16] x17/2 |[M:3/4] x6 |] %19
V:4
 x8 | z2 G,4 z2 | z2[K:bass] E,4 z2 | x[K:treble] x7 | z2 B,4 z2 | z2 G,4 z2 | z2[K:bass] E,4 z2 | %7
 A,2 E,4 z2 |[M:7/8] A,2[K:treble] [D,D]- [D,D]- [D,D]3 |[M:1/4] x2 |[M:4/4] x6[K:bass] x2 | %11
[M:3/4] x6 |[M:1/4] x2 |[M:4/4] [A,,A,]2 z2 [D,F,]2 [D,A,]2 | x7[K:treble] x | x6[K:bass] x2 | x8 | %17
[M:17/16] x17/2 |[M:3/4] x6 |] %19

